X: 36349
T: Sean Hayes'
R: barndance
M: 4/4
K: Gmajor
|:B2 B2 cBce|d2 g2 gfed|B2 B2 cBAG|A4 ADGA|
B2 B2 cBce|d2 g2 b3a|gdBd ecAF|G2 G2 G2:|
|:(3efg|:a2 g2 d3g|f2e2 A3G|FGAB cdeg|agfe d2 (3efg|
a2 g2 d3g|f2 e2 A3G|FGAB cdef|g2 g2 g2:|

